X: 2307
T: Bad Turn, The
R: polka
M: 2/4
K: Gmajor
|BAG2 BAG2|BAGB dBG2|BAGB dedc|B2A2 A2dc|
BAG2 BAG2|BAGB dBG2|BAGB dedB|A2G2 G3z|
bagz agf2|gfe2 dBG2|bagz agfa|e 3bcd d3z|
bagz agf2|gfe2 dBG2|GABc dedB|A2G2 G3|

